dist/svg/u1F9B0.svg

<?xml version="1.0" encoding="UTF-8"?><svg id="Layer_1" xmlns="http://www.w3.org/2000/svg" viewBox="0 0 40 40"><g><path d="M14.63558,13.82152L3.5869,25.36902c-.0288-.05832-.05801-.10723-.08691-.16329v10.82874H36.49999v-12.69043c-8.85052,.2344-21.86441-9.52252-21.86441-9.52252Z" style="fill:#ffc84d;"/><path d="M4.44363,21.47633c2.3617-5.9662,8.48848-10.22761,15.69716-10.22761,7.27977,0,13.45629,4.34587,15.76601,10.40462l.59321-.11229v-7.43135c-.00001-.66546-.17869-1.32704-.55866-1.87335-3.80685-5.4733-10.66581-8.93069-18.30023-8.16497-5.46399,.54811-10.25607,3.28638-13.37922,7.23136-.48742,.61568-.76189,1.37355-.76189,2.15881v8.13067c.30827-.05531,.62157-.09858,.94363-.11589Z" style="fill:#ff9000;"/><path d="M35.83804,21.47633c-2.3617-5.9662-8.48858-10.22761-15.69726-10.22761S6.80533,15.51013,4.44363,21.47633c-.32206,.01731-.63537,.06058-.94363,.11589v3.61351c.0289,.05606,.05811,.10497,.08691,.16329L14.63558,13.82152s13.01389,9.75692,21.86441,9.52252v-1.80299c-.21743-.03085-.43808-.05268-.66195-.06472Z" style="fill:#ff9000;"/></g><rect width="40" height="40" style="fill:none;"/></svg>

<svg id="Layer_1" data-name="Layer 1" xmlns="http://www.w3.org/2000/svg" viewBox="0 0 40 40"><defs><style>.cls-1{fill:#ffc84d;}.cls-2{fill:#ff9000;}.cls-3{fill:none;}</style></defs><path class="cls-1" d="M14.636,13.822,3.587,25.369c-.029-.058-.058-.107-.087-.163V36.034h33V23.344C27.649,23.578,14.636,13.822,14.636,13.822Z"/><path class="cls-2" d="M4.444,21.476a16.724,16.724,0,0,1,15.7-10.227,16.709,16.709,0,0,1,15.766,10.4l.593-.112V14.11a3.276,3.276,0,0,0-.559-1.874,19.786,19.786,0,0,0-18.3-8.165A19.558,19.558,0,0,0,4.262,11.3,3.476,3.476,0,0,0,3.5,13.462v8.13A7.853,7.853,0,0,1,4.444,21.476Z"/><path class="cls-2" d="M35.838,21.476a16.726,16.726,0,0,0-15.7-10.227,16.724,16.724,0,0,0-15.7,10.227,7.853,7.853,0,0,0-.944.116v3.614c.029.056.058.105.087.163L14.636,13.822S27.649,23.578,36.5,23.344v-1.8Q36.175,21.495,35.838,21.476Z"/><rect class="cls-3" width="40" height="40"/></svg>
